!!!OTL: DA DROBEN AUFM BERGEL
!!!ARE: Europa, Mitteleuropa, Oesterreich, Wien
!!!SCT: E0677
!!!YEM: Copyright 1995, estate of Helmut Schaffrath.
**kern
*ICvox
*Ivox
*M3/8
*k[b-]
*F:
{8cc
=1
8cc
8b-
8a
=2
8dd
8dd
8dd
=3
4cc}
{8cc
=4
8cc
8b-
8a
=5
8b-
8b-
8b-
=6
4a}
{8a
=7
8a
8g
8f
=8
8g
8g
8g
=9
4f}
==
!!!AGN: Liebes - Lied, Leid, Klage
!!!ONB: ESAC (Essen Associative Code) Database: ERK2
!!!AMT: simple triple
!!!AIN: vox
!!!EED: Helmut Schaffrath
!!!EEV: 1.0
*-
